svg/activity.svg

<?xml version="1.0" encoding="UTF-8"?>
<svg xmlns="http://www.w3.org/2000/svg" xmlns:xlink="http://www.w3.org/1999/xlink" width="32" height="32" viewBox="0 0 32 32">
<path fill-rule="nonzero" fill="rgb(0%, 0%, 0%)" fill-opacity="1" d="M 28.09375 15.949219 L 24.023438 15.949219 L 22.308594 9.074219 C 22.226562 8.738281 21.925781 8.5 21.578125 8.5 C 21.230469 8.511719 20.933594 8.761719 20.863281 9.105469 L 18.304688 21.804688 L 17.199219 16.546875 C 17.132812 16.222656 16.863281 15.976562 16.53125 15.949219 C 16.199219 15.921875 15.890625 16.113281 15.769531 16.421875 L 15 18.351562 L 13.5 5.910156 C 13.453125 5.53125 13.132812 5.25 12.753906 5.25 C 12.371094 5.246094 12.042969 5.53125 12 5.914062 L 10.136719 21.964844 L 8.820312 16.964844 C 8.734375 16.632812 8.433594 16.40625 8.09375 16.40625 L 3.90625 16.40625 C 3.492188 16.40625 3.15625 16.742188 3.15625 17.15625 C 3.15625 17.570312 3.492188 17.90625 3.90625 17.90625 L 7.5 17.90625 L 9.679688 26.183594 C 9.765625 26.515625 10.0625 26.746094 10.40625 26.746094 L 10.460938 26.746094 C 10.820312 26.71875 11.109375 26.441406 11.148438 26.085938 L 12.746094 12.359375 L 13.84375 21.441406 C 13.886719 21.78125 14.152344 22.046875 14.492188 22.09375 C 14.832031 22.136719 15.15625 21.945312 15.285156 21.628906 L 16.226562 19.28125 L 17.574219 25.695312 C 17.648438 26.039062 17.957031 26.285156 18.3125 26.28125 C 18.664062 26.28125 18.96875 26.03125 19.039062 25.683594 L 21.640625 12.683594 L 22.691406 16.890625 C 22.773438 17.226562 23.074219 17.460938 23.421875 17.460938 L 28.070312 17.460938 C 28.484375 17.460938 28.820312 17.125 28.820312 16.710938 C 28.820312 16.296875 28.484375 15.960938 28.070312 15.960938 Z M 28.09375 15.949219 "/>
</svg>

<svg role="img" viewBox="0 0 32 32" height="32" width="32" xmlns="http://www.w3.org/2000/svg"><path d="M28.094 15.95h-4.07l-1.715-6.876a.749.749 0 0 0-.73-.574.757.757 0 0 0-.716.605l-2.558 12.7-1.106-5.258a.748.748 0 0 0-1.43-.125L15 18.352 13.5 5.91a.751.751 0 0 0-.746-.66.75.75 0 0 0-.754.664l-1.863 16.05-1.317-5a.75.75 0 0 0-.726-.558H3.906a.75.75 0 0 0 0 1.5H7.5l2.18 8.278a.748.748 0 0 0 .726.562h.055a.746.746 0 0 0 .687-.66l1.598-13.727 1.098 9.082c.043.34.308.606.648.653a.754.754 0 0 0 .793-.465l.942-2.348 1.347 6.414a.749.749 0 0 0 1.465-.011l2.602-13 1.05 4.207c.082.336.383.57.73.57h4.65a.75.75 0 0 0 0-1.5Zm0 0"/></svg>
